X: 13
T: Textless piece \`a 3
N: Derived from Ano3005-Textless_piece_a_3--Verona_757.krn
C: Anonymous
%%abc-version 2.0
%%abcx-abcm2ps-target-version 5.9.1 (29 Sep 2008)
%%abc-creator hum2abc beta
%%abcx-conversion-date 2019/02/16 20:18:27
%%abc-edited-by Jesse Rodin
%%abc-edited-by Jesse Rodin 8/15/2013
%%abcx-initial-encoding-date 2013/08/15/
%%humdrum-veritas 1846433568
%%humdrum-veritas-data 1577123329
%%linebreak <none>
%%barnumbers 0
L: 1/4
M: 2/1
Q: 1/2=120
V: 1 clef=treble
V: 2 clef=treble-8
V: 3 clef=bass
K: Bb
[V:1] G6F=E | 
[V:2] G8 | 
[V:3] G,,8 | 
[V:1] F4G4- | 
[V:2] A4G4- | 
[V:3] D,4E,4- | 
[V:1] G2F=ED2E2- | 
[V:2] G2B4c2- | 
[V:3] E,2D,C,B,,2A,,2- | 
[V:1] EDG4^F2 | 
[V:2] c2B2A4 | 
[V:3] A,,2G,,2D,4 | 
[V:1] G4z4 | 
[V:2] G8 | 
[V:3] G,,8 | 
[V:1] A4G2B2- | 
[V:2] F4G4- | 
[V:3] D,4G,,4- | 
[V:1] B2AGF2G2- | 
[V:2] G2F=ED2=E2- | 
[V:3] G,,4z2C,2- | 
[V:1] GFB4A2 | 
[V:2] EDG4F2 | 
[V:3] C,2G,,2D,4 | 
[V:1] G4F2=E2- | 
[V:2] G3AB2c2- | 
[V:3] E,4D,2C,2- | 
[V:1] EDG4^F2 | 
[V:2] cBAGA4 | 
[V:3] C,D,E,2D,4 | 
[V:1] (3G6F2=E4 | 
[V:2] G8 | 
[V:3] (3:2:4G,,6A,,2B,,2C,2 | 
[V:1] (3F6=E2F4 | 
[V:2] z8 | 
[V:3] (3:2:2D,8D,4 | 
[V:1] (3:2:2G8G4 | 
[V:2] (3G6F2=E4 | 
[V:3] (3E,6F,2G,4 | 
[V:1] (3:2:2A8A4 | 
[V:2] (3F6=E2F4 | 
[V:3] (3:2:2D,8D,4 | 
[V:1] (3:2:2G8G4 | 
[V:2] (3:2:2G8G4 | 
[V:3] (3:2:4E,6D,2C,2B,,2 | 
[V:1] (3:2:2c8A4 | 
[V:2] (3:2:2A8A4 | 
[V:3] (3A,,4C,4D,4 | 
[V:1] (3:2:2B8G4 | 
[V:2] (3:2:2G8G4 | 
[V:3] (3:2:4G,,6A,,2B,,2C,2 | 
[V:1] (3:2:2A8A4 | 
[V:2] (3:2:2c8A4 | 
[V:3] (3:2:2A,,4F,,8 | 
[V:1] (3:2:2B8A4 | 
[V:2] (3:2:2d8c4 | 
[V:3] (3G,,4B,,4F,,4 | 
[V:1] (3:2:2G8^F4 | 
[V:2] (3:2:2B4A8 | 
[V:3] (3:2:2G,,4D,8 | 
[V:1] G4z4 | 
[V:2] G4G4 | 
[V:3] G,,8 | 
[V:1] G4z2C2 | 
[V:2] z2=E2A4 | 
[V:3] C,4A,,4 | 
[V:1] F4z2D2 | 
[V:2] z2F2B4 | 
[V:3] D,4B,,4 | 
[V:1] G4z2=E2 | 
[V:2] z2G2c4 | 
[V:3] E,4C,4 | 
[V:1] A4z2F2 | 
[V:2] z2A2d3c | 
[V:3] F,4D,4 | 
[V:1] D2G4^F2 | 
[V:2] B2G2A4 | 
[V:3] G,2E,2D,4 | 
[V:1] G6F=E | 
[V:2] G8 | 
[V:3] G,,8 | 
[V:1] F4G4- | 
[V:2] A4G4- | 
[V:3] D,4E,4- | 
[V:1] G2F=ED2E2 | 
[V:2] G2B4c2- | 
[V:3] E,2D,C,B,,2A,,2- | 
[V:1] D2G4^F2 | 
[V:2] c2B2A4 | 
[V:3] A,,2G,,2D,4 | 
[V:1] G4z4 | 
[V:2] G8 | 
[V:3] G,,8 | 
[V:1] A4G2B2- | 
[V:2] F4G4- | 
[V:3] D,4G,,4- | 
[V:1] B2AGF2G2- | 
[V:2] G2F=ED2=E2- | 
[V:3] G,,4z2C,2- | 
[V:1] GFB4A2 | 
[V:2] EDG4F2 | 
[V:3] C,2G,,2D,4 | 
[V:1] G4F2=E2- | 
[V:2] G3AB2c2- | 
[V:3] E,4D,2C,2- | 
[V:1] EDG4^F2 | 
[V:2] cBAGA4 | 
[V:3] C,D,E,2D,4 | 
[V:1] G8 | 
[V:2] (3:2:2G8G4 | 
[V:3] (3:2:2G,,8G,,4 | 
[V:1] z8 | 
[V:2] (3:2:2F8F4 | 
[V:3] (3:2:2D,8D,4 | 
[V:1] (3:2:2G8F4 [I:setbarnb 41]| 
[V:2] (3:2:2G8A4 | 
[V:3] (3:2:2G,,8D,4 | 
[V:1] (3:2:2G8G4 | 
[V:2] (3:2:2G8G4 | 
[V:3] (3:2:2E,8E,4 | 
[V:1] (3:2:2A8A4 | 
[V:2] (3:2:2c8c4 | 
[V:3] (3:2:2F,8F,4 | 
[V:1] (3:2:2G8G4 | 
[V:2] (3:2:2B4G8 | 
[V:3] (3:2:2G,8E,4 | 
[V:1] (3:2:2c8c4 | 
[V:2] (3:2:2A8A4 | 
[V:3] (3:2:2C,8C,4 | 
[V:1] (3:2:2B4G8 | 
[V:2] (3:2:2G8G4 | 
[V:3] (3:2:2G,,8B,,4 | 
[V:1] (3:2:2A8A4 | 
[V:2] (3:2:2c8c4 | 
[V:3] (3:2:2A,,8C,4 | 
[V:1] (3:2:2B8A4 | 
[V:2] (3:2:2d8c4 | 
[V:3] (3:2:2G,,8C,4 | 
[V:1] (3:2:2G8^F4 | 
[V:2] (3:2:2B4A8 | 
[V:3] (3:2:2G,,4D,8 | 
[V:1] G4z4 | 
[V:2] G8 | 
[V:3] G,,8 | 
[V:1] G4C4 | 
[V:2] z2=E2A4 | 
[V:3] C,4z2A,,2 | 
[V:1] F4D4 | 
[V:2] z2F2B4 | 
[V:3] D,4z2B,,2 | 
[V:1] G4=E4 | 
[V:2] z2G2c4 | 
[V:3] E,4z2C,2 | 
[V:1] A4F4 | 
[V:2] z2A2d3c | 
[V:3] F,4z2D,2 | 
[V:1] D2G4^F2 | 
[V:2] B2G2A4 | 
[V:3] G,2E,2D,4 | 
[V:1] G8 |]  
[V:2] G8 |]  
[V:3] z2G,,2G,,4 |]  



